public/sprite.svg

<?xml version="1.0" encoding="UTF-8"?>
<svg xmlns="http://www.w3.org/2000/svg" xmlns:xlink="http://www.w3.org/1999/xlink" width="0" height="0">
<defs>
<symbol viewBox="0 0 24 24" fill="none" id="x">
<path d="M18 6L6 18M18 18L6 6" stroke="currentColor" stroke-width="2" stroke-linecap="round"></path>
</symbol>
<symbol viewBox="0 0 24 24" fill="none" id="trash">
<path d="M4 6.17647H20M10 16.7647V10.4118M14 16.7647V10.4118M16 21H8C6.89543 21 6 20.0519 6 18.8824V7.23529C6 6.65052 6.44772 6.17647 7 6.17647H17C17.5523 6.17647 18 6.65052 18 7.23529V18.8824C18 20.0519 17.1046 21 16 21ZM10 6.17647H14C14.5523 6.17647 15 5.70242 15 5.11765V4.05882C15 3.47405 14.5523 3 14 3H10C9.44772 3 9 3.47405 9 4.05882V5.11765C9 5.70242 9.44772 6.17647 10 6.17647Z" stroke="currentColor" stroke-width="2" stroke-linecap="round" stroke-linejoin="round"></path>
</symbol>
<symbol viewBox="0 0 24 24" fill="none" id="tag">
<path d="M16.354 7.65287L16.3476 7.65284M19.5226 2.85178L13.7222 2.4056C13.2079 2.36604 12.7021 2.55317 12.3374 2.91788L2.91751 12.3377C2.22753 13.0277 2.22753 14.1464 2.9175 14.8364L9.16405 21.0829C9.85402 21.7729 10.9727 21.7729 11.6627 21.0829L21.0825 11.663C21.4472 11.2983 21.6344 10.7925 21.5948 10.2782L21.1486 4.47786C21.0818 3.60899 20.3914 2.91862 19.5226 2.85178Z" stroke="currentColor" stroke-width="2" stroke-linecap="round" stroke-linejoin="round"></path>
</symbol>
<symbol viewBox="0 0 26 26" fill="none" id="sun">
<path d="M13.0006 2.73677V1.97656M13.0006 24.0227V23.2624M23.2634 12.9996H24.0236M1.97754 12.9996H2.73775M20.2582 5.74278L20.7957 5.20523M5.20541 20.794L5.74295 20.2565M20.2582 20.2564L20.7957 20.794M5.20541 5.20517L5.74295 5.74272M19.0674 12.958C19.0674 16.3169 16.3446 19.0397 12.9857 19.0397C9.62692 19.0397 6.90406 16.3169 6.90406 12.958C6.90406 9.59922 9.62692 6.87635 12.9857 6.87635C16.3446 6.87635 19.0674 9.59922 19.0674 12.958Z" stroke="currentColor" stroke-width="2" stroke-linecap="round"></path>
</symbol>
<symbol viewBox="0 0 24 24" fill="none" id="plus">
<path d="M12 6.5L12 18.5M18 12.5L6 12.5" stroke="currentColor" stroke-width="2" stroke-linecap="round"></path>
</symbol>
<symbol viewBox="0 0 24 24" fill="none" id="moon">
<path d="M21.6001 14.6396C20.6978 14.9132 19.7405 15.0603 18.7488 15.0603C13.3308 15.0603 8.93868 10.6682 8.93868 5.25018C8.93868 4.25896 9.08569 3.30208 9.35909 2.40015C5.33166 3.62153 2.40015 7.36319 2.40015 11.7895C2.40015 17.2075 6.7923 21.5997 12.2103 21.5997C16.6371 21.5997 20.379 18.6676 21.6001 14.6396Z" stroke="currentColor" stroke-width="2" stroke-linejoin="round"></path>
</symbol>
<symbol viewBox="0 0 24 24" fill="none" id="minus">
<path d="M19.2 12.5L4.79999 12.5" stroke="currentColor" stroke-width="2" stroke-linecap="round"></path>
</symbol>
<symbol viewBox="0 0 24 24" fill="none" id="info">
<path d="M12 12L12 16.5M12 8.66455V8.625M3 12C3 7.02944 7.02944 3 12 3C16.9706 3 21 7.02944 21 12C21 16.9706 16.9706 21 12 21C7.02944 21 3 16.9706 3 12Z" stroke="currentColor" stroke-width="2" stroke-linecap="round" stroke-linejoin="round"></path>
</symbol>
<symbol viewBox="0 0 24 24" fill="none" id="globe">
<path d="M12 21C16.9706 21 21 16.9706 21 12C21 7.02944 16.9706 3 12 3M12 21C7.02944 21 3 16.9706 3 12C3 7.02944 7.02944 3 12 3M12 21C9.82538 21 8.0625 16.9706 8.0625 12C8.0625 7.02944 9.82538 3 12 3M12 21C14.1746 21 15.9375 16.9706 15.9375 12C15.9375 7.02944 14.1746 3 12 3M4.6875 16.3744C6.33632 15.4302 9.07573 14.8125 12.1764 14.8125C15.4124 14.8125 18.255 15.4854 19.875 16.5M4.6875 7.62558C6.33632 8.56975 9.07573 9.1875 12.1764 9.1875C15.4124 9.1875 18.255 8.5146 19.875 7.5" stroke="currentColor" stroke-width="2"></path>
</symbol>
<symbol viewBox="0 0 24 24" fill="none" id="filter">
<path d="M2.40002 4.80002L12 4.80002M2.40002 12H12M12 12V14.4M12 12V9.60002M2.40002 19.2H7.20002M12 19.2L21.6 19.2M16.8 12H21.6M16.8 4.80002L21.6 4.80003M16.8 4.80002V7.20002M16.8 4.80002V2.40002M7.80002 21.6V16.8" stroke="currentColor" stroke-width="2" stroke-linecap="round" stroke-linejoin="round"></path>
</symbol>
<symbol viewBox="0 0 24 24" fill="none" id="computer">
<path d="M12.0004 16.7996V19.1996M8.40039 20.3996H15.6004M4.80039 16.7996H19.2004C20.5259 16.7996 21.6004 15.7251 21.6004 14.3996V5.99961C21.6004 4.67413 20.5259 3.59961 19.2004 3.59961H4.80039C3.47491 3.59961 2.40039 4.67413 2.40039 5.99961V14.3996C2.40039 15.7251 3.47491 16.7996 4.80039 16.7996Z" stroke="currentColor" stroke-width="2" stroke-linecap="round" stroke-linejoin="round"></path>
</symbol>
<symbol viewBox="0 0 24 24" fill="none" id="chevron-up">
<path d="M7 14.5834L12.0008 10L17 14.5834" stroke="currentColor" stroke-width="2" stroke-linecap="round" stroke-linejoin="round"></path>
</symbol>
<symbol viewBox="0 0 24 24" fill="none" id="chevron-down">
<path d="M7 10L12.0008 14.58L17 10" stroke="currentColor" stroke-width="2" stroke-linecap="round" stroke-linejoin="round"></path>
</symbol>
<symbol viewBox="0 0 24 24" fill="none" id="check">
<path d="M15.142 9.98299L10.875 14.25L9.42049 12.7955M12 3C7.02944 3 3 7.02944 3 12C3 16.9706 7.02944 21 12 21C16.9706 21 21 16.9706 21 12C21 7.02944 16.9706 3 12 3Z" stroke="currentColor" stroke-width="2" stroke-linecap="round" stroke-linejoin="round"></path>
</symbol>
<symbol viewBox="0 0 24 24" fill="none" id="bag">
<path d="M15.5999 8.3998V5.39981C15.5999 3.41158 13.9881 1.7998 11.9999 1.7998C10.0117 1.7998 8.3999 3.41158 8.3999 5.3998V8.3998M4.72717 22.1998H19.2726C20.5579 22.1998 21.5999 21.1772 21.5999 19.9158L20.109 7.79977C20.109 6.53835 19.067 5.51576 17.7817 5.51576H5.92717C4.64186 5.51576 3.5999 6.53835 3.5999 7.79977L2.3999 19.9158C2.3999 21.1772 3.44186 22.1998 4.72717 22.1998Z" stroke="currentColor" stroke-width="2" stroke-linecap="round" stroke-linejoin="round"></path>
</symbol>
</defs>
</svg>

<svg xmlns="http://www.w3.org/2000/svg">
  <symbol id="bag" fill="none" viewBox="0 0 24 24">
    <path stroke="currentColor" stroke-linecap="round" stroke-linejoin="round" stroke-width="2" d="M15.6 8.4v-3a3.6 3.6 0 0 0-7.2 0v3M4.727 22.2h14.546c1.285 0 2.327-1.023 2.327-2.284L20.109 7.8c0-1.262-1.042-2.284-2.327-2.284H5.927C4.642 5.516 3.6 6.538 3.6 7.8L2.4 19.916c0 1.261 1.042 2.284 2.327 2.284" />
  </symbol>
  <symbol id="check" fill="none" viewBox="0 0 24 24">
    <path stroke="currentColor" stroke-linecap="round" stroke-linejoin="round" stroke-width="2" d="m15.142 9.983-4.267 4.267-1.455-1.454M12 3a9 9 0 1 0 0 18 9 9 0 0 0 0-18" />
  </symbol>
  <symbol id="chevron-down" fill="none" viewBox="0 0 24 24">
    <path stroke="currentColor" stroke-linecap="round" stroke-linejoin="round" stroke-width="2" d="m7 10 5 4.58L17 10" />
  </symbol>
  <symbol id="chevron-up" fill="none" viewBox="0 0 24 24">
    <path stroke="currentColor" stroke-linecap="round" stroke-linejoin="round" stroke-width="2" d="M7 14.583 12 10l5 4.583" />
  </symbol>
    <svg id='computer' fill="none" viewBox="0 0 24 24" >
    <path  stroke="currentColor" stroke-width="2" stroke-linecap="round" stroke-linejoin="round" d="M12.0004 16.7996V19.1996M8.40039 20.3996H15.6004M4.80039 16.7996H19.2004C20.5259 16.7996 21.6004 15.7251 21.6004 14.3996V5.99961C21.6004 4.67413 20.5259 3.59961 19.2004 3.59961H4.80039C3.47491 3.59961 2.40039 4.67413 2.40039 5.99961V14.3996C2.40039 15.7251 3.47491 16.7996 4.80039 16.7996Z"/>
  </svg>
  <symbol id="filter" fill="none" viewBox="0 0 24 24">
    <path stroke="currentColor" stroke-linecap="round" stroke-linejoin="round" stroke-width="2" d="M2.4 4.8H12M2.4 12H12m0 0v2.4m0-2.4V9.6m-9.6 9.6h4.8m4.8 0h9.6M16.8 12h4.8m-4.8-7.2h4.8m-4.8 0v2.4m0-2.4V2.4m-9 19.2v-4.8" />
  </symbol>
  <symbol id="globe" fill="none" viewBox="0 0 24 24">
    <path stroke="currentColor" stroke-width="2" d="M12 21a9 9 0 1 0 0-18m0 18a9 9 0 1 1 0-18m0 18c-2.175 0-3.937-4.03-3.937-9S9.825 3 12 3m0 18c2.175 0 3.938-4.03 3.938-9S14.175 3 12 3M4.688 16.374c1.648-.944 4.388-1.561 7.488-1.561 3.236 0 6.079.672 7.699 1.687M4.688 7.626c1.648.944 4.388 1.561 7.488 1.561 3.236 0 6.079-.672 7.699-1.687" />
  </symbol>
  <symbol id="info" fill="none" viewBox="0 0 24 24">
    <path stroke="currentColor" stroke-linecap="round" stroke-linejoin="round" stroke-width="2" d="M12 12v4.5m0-7.835v-.04M3 12a9 9 0 1 1 18 0 9 9 0 0 1-18 0" />
  </symbol>
  <symbol id="minus" fill="none" viewBox="0 0 24 24">
    <path stroke="currentColor" stroke-linecap="round" stroke-width="2" d="M19.2 12.5H4.8" />
  </symbol>
  <symbol id="moon" fill="none" viewBox="0 0 24 24">
    <path stroke="currentColor" stroke-linejoin="round" stroke-width="2" d="M21.6 14.64c-.902.273-1.86.42-2.851.42-5.418 0-9.81-4.392-9.81-9.81 0-.991.147-1.948.42-2.85C5.332 3.622 2.4 7.363 2.4 11.79c0 5.418 4.392 9.81 9.81 9.81 4.427 0 8.169-2.932 9.39-6.96Z" />
  </symbol>
  <symbol id="plus" fill="none" viewBox="0 0 24 24">
    <path stroke="currentColor" stroke-linecap="round" stroke-width="2" d="M12 6.5v12m6-6H6" />
  </symbol>
    <symbol id='sun' fill="none" viewBox="0 0 26 26" >
    <path stroke="currentColor" stroke-width="2" stroke-linecap="round" d="M13.0003 2.73677V1.97656M13.0003 24.0227V23.2624M23.2632 12.9996H24.0234M1.97729 12.9996H2.73751M20.2579 5.74278L20.7955 5.20523M5.20516 20.794L5.74271 20.2565M20.2579 20.2564L20.7955 20.794M5.20516 5.20517L5.74271 5.74272M19.0672 12.958C19.0672 16.3169 16.3443 19.0397 12.9855 19.0397C9.62667 19.0397 6.90381 16.3169 6.90381 12.958C6.90381 9.59922 9.62667 6.87635 12.9855 6.87635C16.3443 6.87635 19.0672 9.59922 19.0672 12.958Z" />
  </symbol>
  <symbol id="tag" fill="none" viewBox="0 0 24 24">
    <path stroke="currentColor" stroke-linecap="round" stroke-linejoin="round" stroke-width="2" d="M16.354 7.653h-.006m3.175-4.801-5.8-.446a1.77 1.77 0 0 0-1.386.512l-9.42 9.42c-.69.69-.69 1.808 0 2.498l6.247 6.247c.69.69 1.809.69 2.499 0l9.42-9.42c.364-.365.551-.87.512-1.385l-.446-5.8a1.77 1.77 0 0 0-1.626-1.626" />
  </symbol>
  <symbol id="trash" fill="none" viewBox="0 0 24 24">
    <path stroke="currentColor" stroke-linecap="round" stroke-linejoin="round" stroke-width="2" d="M4 6.176h16M10 16.765v-6.353m4 6.353v-6.353M16 21H8c-1.105 0-2-.948-2-2.118V7.235c0-.584.448-1.059 1-1.059h10c.552 0 1 .475 1 1.06v11.646c0 1.17-.895 2.118-2 2.118M10 6.176h4c.552 0 1-.474 1-1.058v-1.06C15 3.475 14.552 3 14 3h-4c-.552 0-1 .474-1 1.059v1.059c0 .584.448 1.058 1 1.058" />
  </symbol>
  <symbol id="x" fill="none" viewBox="0 0 24 24">
    <path stroke="currentColor" stroke-linecap="round" stroke-width="2" d="M18 6 6 18m12 0L6 6" />
  </symbol>
</svg>
